X:1
T:Captain Megan
M:6/8
L:1/8
R:”Irish air.”
N:Not Carolan's "Captain Magan"
Q:"Jig time."
B:Manson – Hamilton’s Universal Tune Book, vol. 2 (1846, p. 41)
Z:AK/Fiddler’s Companion
K:D
f/>e/|d>BA A>Bd|d3 z2 a/>g/|f>ed d>ef|!fermata!g3 z2G|G>AG g2 f/g/|
a>gf !fermata!e2 d/e/|fdB ABd|f2d {f}!fermata!e2 d/e/|fdB ABd|(d3 d2)||

